X: 39703
T: Terry 'Cuz' Teahan's
R: polka
M: 2/4
K: Gmajor
|:B/c/d B/c/d|g/a/g/f/ g2|B/c/d B/c/d|BA AG|
B/c/d B/c/d|g/a/g/f/ g>f|ge dB|A/^A/B/=A/ G2:|
|:ba ag|eg dg|ba ag|ba ab/a/|
ga bg|e/f/g/e/ de/d/|Bd e/d/B|A/^A/B/=A/ G2:|

